germany/municipalities/07235095.svg

<?xml version="1.0" encoding="UTF-8" standalone="no"?>
<!-- Created with Inkscape (http://www.inkscape.org/) -->

<svg
   xmlns:dc="http://purl.org/dc/elements/1.1/"
   xmlns:cc="http://creativecommons.org/ns#"
   xmlns:rdf="http://www.w3.org/1999/02/22-rdf-syntax-ns#"
   xmlns:svg="http://www.w3.org/2000/svg"
   xmlns="http://www.w3.org/2000/svg"
   xmlns:sodipodi="http://sodipodi.sourceforge.net/DTD/sodipodi-0.dtd"
   xmlns:inkscape="http://www.inkscape.org/namespaces/inkscape"
   width="146.73727mm"
   height="157.86383mm"
   viewBox="0 0 146.73728 157.86383"
   version="1.1"
   id="svg865"
   inkscape:version="0.92.5 (2060ec1f9f, 2020-04-08)"
   sodipodi:docname="DEU Nittel COA.svg">
  <defs
     id="defs859">
    <inkscape:path-effect
       effect="spiro"
       id="path-effect4667"
       is_visible="true" />
    <inkscape:path-effect
       effect="spiro"
       id="path-effect4499"
       is_visible="true" />
    <inkscape:path-effect
       effect="spiro"
       id="path-effect4667-6"
       is_visible="true" />
  </defs>
  <sodipodi:namedview
     id="base"
     pagecolor="#ffffff"
     bordercolor="#666666"
     borderopacity="1.0"
     inkscape:pageopacity="0.0"
     inkscape:pageshadow="2"
     inkscape:zoom="1.3290858"
     inkscape:cx="277.29883"
     inkscape:cy="298.32534"
     inkscape:document-units="mm"
     inkscape:current-layer="layer1"
     showgrid="false"
     inkscape:window-width="1920"
     inkscape:window-height="1046"
     inkscape:window-x="-11"
     inkscape:window-y="-11"
     inkscape:window-maximized="1"
     fit-margin-top="0"
     fit-margin-left="0"
     fit-margin-right="0"
     fit-margin-bottom="0"
     inkscape:snap-global="true"
     inkscape:snap-midpoints="true"
     inkscape:snap-smooth-nodes="true" />
  <metadata
     id="metadata862">
    <rdf:RDF>
      <cc:Work
         rdf:about="">
        <dc:format>image/svg+xml</dc:format>
        <dc:type
           rdf:resource="http://purl.org/dc/dcmitype/StillImage" />
        <dc:title></dc:title>
      </cc:Work>
    </rdf:RDF>
  </metadata>
  <g
     inkscape:label="Ebene 1"
     inkscape:groupmode="layer"
     id="layer1"
     transform="translate(63.634872,164.53342)">
    <path
       style="fill:#ffffff;fill-rule:evenodd;stroke:none;stroke-width:1.32291663;stroke-linecap:round;stroke-linejoin:round;stroke-miterlimit:4;stroke-dasharray:none;stroke-opacity:1"
       inkscape:connector-curvature="0"
       d="m 82.440939,-163.87196 -0.332422,89.246806 C 80.490071,-37.084181 48.513003,-7.3520625 9.7337612,-7.3310415 -29.010606,-7.3771415 -60.999636,-37.119913 -62.640996,-74.625154 l -0.33242,-89.246806 H 9.7320232 Z"
       id="path10563-0-6-2-0-7"
       sodipodi:nodetypes="ccccccc" />
    <path
       style="opacity:1;fill:#ff0000;fill-opacity:1;fill-rule:evenodd;stroke:#000000;stroke-width:5;stroke-linecap:round;stroke-linejoin:round;stroke-miterlimit:4;stroke-dasharray:none;stroke-opacity:1;paint-order:normal"
       d="M 2.5 2.5 L 3.2109375 193.52148 L 551.38672 193.52148 L 552.09766 2.5 L 277.29297 2.5 L 2.5 2.5 z "
       transform="matrix(0.26458333,0,0,0.26458333,-63.634872,-164.53342)"
       id="rect4201" />
    <path
       style="fill:#009900;fill-opacity:1;stroke:#000000;stroke-width:5;stroke-linecap:round;stroke-linejoin:round;stroke-miterlimit:4;stroke-dasharray:none;stroke-opacity:1"
       d="M 277.29883 247.94922 L 38.597656 458.39648 C 85.683029 539.42942 175.28768 594.02902 277.29883 594.15039 C 379.40701 594.09504 469.02102 539.52844 516.07031 458.46094 L 277.29883 247.94922 z "
       transform="matrix(0.26458333,0,0,0.26458333,-63.634872,-164.53342)"
       id="path4219" />
    <path
       style="fill:#ffffff;stroke:#000000;stroke-width:5;stroke-linecap:round;stroke-linejoin:round;stroke-miterlimit:4;stroke-dasharray:none;stroke-opacity:1"
       d="M 116.11523 463.25781 C 103.4069 463.15701 90.835572 466.25929 78.634766 469.91602 C 69.498625 472.65422 60.424142 475.70625 51.1875 478.03516 C 56.883076 486.10631 63.027516 493.85523 69.580078 501.25195 C 72.59706 500.31242 75.612023 499.36884 78.634766 498.46289 C 91.648959 494.56239 105.08622 491.2915 118.66016 491.86719 C 132.23311 492.44284 145.31269 496.82836 158.24023 501.00391 C 171.16778 505.17945 184.41169 509.22527 197.99609 509.08203 C 211.58486 508.93875 224.73914 504.61475 237.64844 500.36914 C 250.55773 496.12353 263.74446 491.86719 277.33398 491.86719 C 290.9235 491.86719 304.11024 496.12354 317.01953 500.36914 C 329.92882 504.61475 343.08311 508.93875 356.67188 509.08203 C 370.25628 509.22527 383.50019 505.17945 396.42773 501.00391 C 409.35528 496.82836 422.43486 492.44284 436.00781 491.86719 C 449.58175 491.2915 463.01901 494.56239 476.0332 498.46289 C 479.07803 499.37546 482.11526 500.32513 485.1543 501.27148 C 491.70234 493.87249 497.84333 486.12338 503.5332 478.04883 C 494.27832 475.71831 485.18676 472.65944 476.0332 469.91602 C 463.01901 466.01551 449.58175 462.74462 436.00781 463.32031 C 422.43486 463.89596 409.35528 468.28344 396.42773 472.45898 C 383.50019 476.63453 370.25628 480.6784 356.67188 480.53516 C 343.08311 480.39187 329.92882 476.06787 317.01953 471.82227 C 304.11024 467.57666 290.9235 463.32031 277.33398 463.32031 C 263.74446 463.32031 250.55773 467.57666 237.64844 471.82227 C 224.73914 476.06787 211.58486 480.39187 197.99609 480.53516 C 184.41169 480.67839 171.16778 476.63453 158.24023 472.45898 C 145.31269 468.28344 132.23311 463.89596 118.66016 463.32031 C 117.81179 463.28433 116.96246 463.26453 116.11523 463.25781 z "
       transform="matrix(0.26458333,0,0,0.26458333,-63.634872,-164.53342)"
       id="path4497" />
    <path
       style="fill:none;fill-rule:evenodd;stroke:#000000;stroke-width:1.32291663;stroke-linecap:round;stroke-linejoin:round;stroke-miterlimit:4;stroke-dasharray:none;stroke-opacity:1"
       inkscape:connector-curvature="0"
       d="m 82.440937,-163.87196 -0.332422,89.246808 C 80.490069,-37.084182 48.513,-7.352063 9.7337604,-7.331041 -29.010604,-7.377141 -60.999634,-37.119912 -62.640994,-74.625152 l -0.33242,-89.246808 H 9.7320204 Z"
       id="path10563-0-6-2-0"
       sodipodi:nodetypes="ccccccc" />
    <path
       inkscape:connector-curvature="0"
       style="opacity:1;fill:#ffffff;fill-opacity:1;fill-rule:evenodd;stroke:#000000;stroke-width:1.32291667;stroke-linecap:round;stroke-linejoin:round;stroke-miterlimit:4;stroke-dasharray:none;stroke-opacity:1;paint-order:normal"
       d="m -12.391713,-153.45658 a 1.6001851,1.6001851 0 0 0 -1.60042,1.60042 1.6001851,1.6001851 0 0 0 1.475881,1.5937 v 23.02702 a 1.6001851,1.6001851 0 0 0 -1.475881,1.59422 1.6001851,1.6001851 0 0 0 1.60042,1.60042 1.6001851,1.6001851 0 0 0 1.599901,-1.60042 v -26.21494 a 1.6001851,1.6001851 0 0 0 -1.599901,-1.60042 z m -37.120732,9.0501 c -0.594452,0 -1.073319,0.47835 -1.073319,1.0728 v 9.16947 c 0,0.59445 0.478867,1.07331 1.073319,1.07331 h 3.121258 c 0.594453,0 1.073319,-0.47886 1.073319,-1.07331 v -9.16947 c 0,-0.59445 -0.478866,-1.0728 -1.073319,-1.0728 z m 40.9199819,0.56999 v 10.1756 H 59.187896 l 10.865485,-5.08806 -10.865485,-5.08754 z m -33.7188699,2.31148 c -0.24774,0 -0.447519,0.19978 -0.447519,0.44752 v 4.65812 c 0,0.24774 0.199779,0.447 0.447519,0.447 h 1.6769 c 0.24774,0 0.447,-0.19926 0.447,-0.447 v -4.65812 c 0,-0.24774 -0.19926,-0.44752 -0.447,-0.44752 z m 5.166609,0 c -0.24774,0 -0.447001,0.19978 -0.447001,0.44752 v 4.65812 c 0,0.24774 0.199261,0.447 0.447001,0.447 h 1.6769 c 0.24774,0 0.447518,-0.19926 0.447518,-0.447 v -4.65812 c 0,-0.24774 -0.199778,-0.44752 -0.447518,-0.44752 z m 5.167127,0 c -0.24774,0 -0.447001,0.19978 -0.447001,0.44752 v 4.65812 c 0,0.24774 0.199261,0.447 0.447001,0.447 h 1.6769 c 0.24774,0 0.447,-0.19926 0.447,-0.447 v -4.65812 c 0,-0.24774 -0.19926,-0.44752 -0.447,-0.44752 z m 5.167124,0 c -0.247734,0 -0.447516,0.19978 -0.447516,0.44752 v 4.65812 c 0,0.24774 0.199782,0.447 0.447516,0.447 h 1.676903 c 0.24774,0 0.447,-0.19926 0.447,-0.447 v -4.65812 c 0,-0.24774 -0.19926,-0.44752 -0.447,-0.44752 z m 5.166612,0 c -0.24774,0 -0.447001,0.19978 -0.447001,0.44752 v 4.65812 c 0,0.24774 0.199261,0.447 0.447001,0.447 h 1.6769 c 0.24774,0 0.447519,-0.19926 0.447519,-0.447 v -4.65812 c 0,-0.24774 -0.199779,-0.44752 -0.447519,-0.44752 z m 5.167127,0 c -0.24774,0 -0.447519,0.19978 -0.447519,0.44752 v 4.65812 c 0,0.24774 0.199779,0.447 0.447519,0.447 h 1.6769 c 0.24774,0 0.447,-0.19926 0.447,-0.447 v -4.65812 c 0,-0.24774 -0.19926,-0.44752 -0.447,-0.44752 z"
       id="rect4568" />
    <path
       style="fill:#000000;stroke:none;stroke-width:0.26458332px;stroke-linecap:butt;stroke-linejoin:miter;stroke-opacity:1"
       d="m 26.84982,-138.67143 c -10.9549,0.0147 -21.9095,0.24471 -32.85536,0.68988 10.94586,0.44517 21.90046,0.67519 32.85536,0.68988 11.70226,0.0157 23.40499,-0.21434 35.097599,-0.68988 -11.692609,-0.47554 -23.395339,-0.70557 -35.097599,-0.68988 z"
       id="path4665"
       inkscape:connector-curvature="0" />
  </g>
</svg>

<svg xmlns="http://www.w3.org/2000/svg" width="554.598" height="596.651" viewBox="0 0 146.737 157.864"><path style="fill:#fff;fill-rule:evenodd;stroke:none;stroke-width:1.32291663;stroke-linecap:round;stroke-linejoin:round;stroke-miterlimit:4;stroke-dasharray:none;stroke-opacity:1" d="m82.44-163.872-.331 89.247C80.49-37.085 48.513-7.352 9.734-7.331-29.011-7.377-61-37.12-62.641-74.625l-.332-89.247H9.732z" transform="translate(63.635 164.533)"/><path style="opacity:1;fill:red;fill-opacity:1;fill-rule:evenodd;stroke:#000;stroke-width:5;stroke-linecap:round;stroke-linejoin:round;stroke-miterlimit:4;stroke-dasharray:none;stroke-opacity:1;paint-order:normal" d="m2.5 2.5.71 191.021h548.177l.71-191.021H2.5z" transform="scale(.26458)"/><path style="fill:#090;fill-opacity:1;stroke:#000;stroke-width:5;stroke-linecap:round;stroke-linejoin:round;stroke-miterlimit:4;stroke-dasharray:none;stroke-opacity:1" d="M277.299 247.95 38.598 458.395c47.085 81.033 136.69 135.633 238.7 135.754 102.109-.055 191.723-54.622 238.772-135.69L277.3 247.95z" transform="scale(.26458)"/><path style="fill:#fff;stroke:#000;stroke-width:5;stroke-linecap:round;stroke-linejoin:round;stroke-miterlimit:4;stroke-dasharray:none;stroke-opacity:1" d="M116.115 463.258c-12.708-.101-25.28 3.001-37.48 6.658-9.136 2.738-18.21 5.79-27.448 8.12a268.362 268.362 0 0 0 18.393 23.216c3.017-.94 6.032-1.883 9.055-2.79 13.014-3.9 26.451-7.17 40.025-6.595 13.573.576 26.653 4.961 39.58 9.137 12.928 4.175 26.172 8.221 39.756 8.078 13.589-.143 26.743-4.467 39.652-8.713 12.91-4.245 26.096-8.502 39.686-8.502s26.776 4.257 39.686 8.502c12.909 4.246 26.063 8.57 39.652 8.713 13.584.143 26.828-3.903 39.756-8.078 12.927-4.176 26.007-8.561 39.58-9.137 13.574-.576 27.011 2.695 40.025 6.596 3.045.912 6.082 1.862 9.121 2.808a267.891 267.891 0 0 0 18.38-23.222c-9.256-2.33-18.347-5.39-27.5-8.133-13.015-3.9-26.452-7.171-40.026-6.596-13.573.576-26.653 4.963-39.58 9.139-12.928 4.176-26.172 8.22-39.756 8.076-13.589-.143-26.743-4.467-39.652-8.713-12.91-4.245-26.096-8.502-39.686-8.502s-26.776 4.257-39.686 8.502c-12.909 4.246-26.063 8.57-39.652 8.713-13.584.143-26.828-3.9-39.756-8.076-12.927-4.176-26.007-8.563-39.58-9.139a73.926 73.926 0 0 0-2.545-.062z" transform="scale(.26458)"/><path style="fill:none;fill-rule:evenodd;stroke:#000;stroke-width:1.32291663;stroke-linecap:round;stroke-linejoin:round;stroke-miterlimit:4;stroke-dasharray:none;stroke-opacity:1" d="m82.44-163.872-.331 89.247C80.49-37.085 48.513-7.352 9.734-7.331-29.011-7.377-61-37.12-62.641-74.625l-.332-89.247H9.732z" transform="translate(63.635 164.533)"/><path style="opacity:1;fill:#fff;fill-opacity:1;fill-rule:evenodd;stroke:#000;stroke-width:1.32291667;stroke-linecap:round;stroke-linejoin:round;stroke-miterlimit:4;stroke-dasharray:none;stroke-opacity:1;paint-order:normal" d="M-12.392-153.457a1.6 1.6 0 0 0-1.6 1.6 1.6 1.6 0 0 0 1.476 1.595v23.027a1.6 1.6 0 0 0-1.476 1.594 1.6 1.6 0 0 0 1.6 1.6 1.6 1.6 0 0 0 1.6-1.6v-26.215a1.6 1.6 0 0 0-1.6-1.6zm-37.12 9.05a1.07 1.07 0 0 0-1.074 1.073v9.17c0 .594.48 1.073 1.074 1.073h3.12c.595 0 1.074-.479 1.074-1.073v-9.17a1.07 1.07 0 0 0-1.073-1.072zm40.92.57v10.176h67.78l10.865-5.088-10.865-5.087zm-33.72 2.312c-.247 0-.447.2-.447.448v4.658c0 .247.2.447.448.447h1.677c.247 0 .447-.2.447-.447v-4.658c0-.248-.2-.448-.447-.448zm5.167 0c-.247 0-.447.2-.447.448v4.658c0 .247.2.447.447.447h1.677c.248 0 .448-.2.448-.447v-4.658c0-.248-.2-.448-.448-.448zm5.167 0c-.247 0-.447.2-.447.448v4.658c0 .247.2.447.447.447h1.677c.248 0 .447-.2.447-.447v-4.658c0-.248-.199-.448-.447-.448zm5.168 0c-.248 0-.448.2-.448.448v4.658c0 .247.2.447.448.447h1.676c.248 0 .447-.2.447-.447v-4.658c0-.248-.199-.448-.447-.448zm5.166 0c-.248 0-.447.2-.447.448v4.658c0 .247.2.447.447.447h1.677c.248 0 .448-.2.448-.447v-4.658c0-.248-.2-.448-.448-.448zm5.167 0c-.247 0-.447.2-.447.448v4.658c0 .247.2.447.447.447h1.677c.248 0 .447-.2.447-.447v-4.658c0-.248-.2-.448-.447-.448z" transform="translate(63.635 164.533)"/><path style="fill:#000;stroke:none;stroke-width:.26458332px;stroke-linecap:butt;stroke-linejoin:miter;stroke-opacity:1" d="M26.85-138.671c-10.955.014-21.91.244-32.856.69a836.134 836.134 0 0 0 67.953 0 836.143 836.143 0 0 0-35.097-.69z" transform="translate(63.635 164.533)"/></svg>
